X: 160
M: 3/4
L: 1/8
K: G
(B>A) | G2 D2 E2 | G3 A (Bc) | {B2}A4 (B>A) |
{B2}A4 (Bc) | {Bc}d2 (cB) (AG) | (GF) (GA) (Bc) | d4 (e/f/g) |
{e}d2 (cB) (AG) | (dB) (ed) (cB) | {B2}A4 (GA) |
K:

